src/16/panel/state-warning.svg

<svg xmlns="http://www.w3.org/2000/svg" width="16" height="16" version="1.1">
 <defs>
  <style id="current-color-scheme" type="text/css">
   .ColorScheme-Text { color:#bebebe; } .ColorScheme-Highlight { color:#5294e2; }
  </style>
 </defs>
 <path style="fill:currentColor" class="ColorScheme-Text" d="M 7.9238,1.002 C 7.4441,1.0309 7.0099,1.3292 6.7695,1.7949 L 3.9805,7.2031 1.1895,12.613 C 1.0706,12.844 1.0055,13.105 1,13.371 0.9811,14.264 1.6222,14.999 2.4199,15 H 8 13.578 C 14.672,15 15.355,13.674 14.809,12.613 L 12.02,7.2031 9.2305,1.7949 C 8.9883,1.326 8.5497,1.0272 8.0664,1.002 8.0189,0.99928 7.9713,0.99928 7.9238,1.002 Z M 7,5 H 9 V 10 H 7 Z M 7,11 H 9 V 13 H 7 Z"/>
</svg>

<svg xmlns="http://www.w3.org/2000/svg" width="16" height="16"><defs><style id="current-color-scheme" type="text/css"></style></defs><path d="M7.924 1.002c-.48.029-.914.327-1.155.793L3.982 7.203l-2.792 5.41a1.74 1.74 0 0 0-.189.758c-.019.893.622 1.628 1.42 1.629H13.578c1.094 0 1.777-1.326 1.231-2.387l-2.789-5.41-2.79-5.408c-.242-.469-.68-.768-1.164-.793a1.247 1.247 0 0 0-.142 0zM7 5h2v5H7zm0 6h2v2H7z" fill="currentColor" color="#bebebe"/></svg>
